X:1
T: The Hollyford Jig
C:
R:Jig
Q:180
K:D
M:6/8
L:1/16
|:F6 A2G2F2|A2B2A2 G2E2D2|E2G2E2 c4A2|def2d2 c2A2B2|c2e2d2 c2A2c2|d2c2A2 G2E2D2|D2E2D2 dcA2G2|F2E2F2 G2E2D2:|
|:c6 c2A2c2|d2c2A2 G2E2D2|E2G2E2 c4A2|def2d2 c2A2B2|c2e2d2 c2A2c2|d2c2A2 G2E2D2|D2E2D2 dcA2G2|F2E2F2 G2E2D2:|
|:d2F2F2 A,2F2F2|A,DF2A2 G2E2D2|E2G2E2 c2d2e2|f2e2d2 e2f2g2|fga2f2 g2b2g2|f2d2B2 A2G2F2|E2F2E2 dcA2G2|F2E2F2 G2E2D2:|
